X: 765
T: Fikrimin İnce Gülü
C: İsmail Hakkı Bey
O: Turkey
F: http://compmusic.upf.edu/node/140
N: acemkurdi--sarki--yuruksemai_ii--fikrimin_ince--muallim_ismail_hakki_bey
N: makam= acemkurdi
N: form= sarki
N: usul= yuruksemai_ii = 6/8
M: 6/8
L: 1/16
K: C _B   
Q: 1/4=156
%%MIDI tuningsystem comma53
g2a2 b2a6  | g2a2 b2a6  | g2f2 e2d2 c2e2  | \
w:  ARANAĞME  |   |   | 
cdcB BAA4z2  | 
w:   | 
g2a2 b2a6  | g2a2 b2a6  | g2f2 e2d2 c2e2  | \
w:  ARANAĞME  |   |   | 
cdcB BAA4z2  | 
w:   | 
g4 a2a2 a4  | g2a2 b2a4z2  | g3a b2ba a3g  | \
w:  Fik ri min_ in  |  ce  *  gü lü    |  Kal *  bi min  *  şen   | 
aggf fef4z2  | 
w:  bül *  *  *  bü *  lü    | 
g4 a2a2 a4  | g2a2 b2a4z2  | g3a b2ba a3g  | \
w:  Fik ri min_ in  |  ce  *  gü lü    |  Kal *  bi min  *  şen   | 
aggf fef4z2  | 
w:  bül *  *  *  bü *  lü    | 
e2f4g2 e3d  | d3c dfed cBAG  | B4 B2B2 BAG2  | 
w:  O  gün  ki  gör  |  düm  *  se *  ni    |  Yak tın_ ah  yak  | 
ABc2 BAA4z2  | e2f4g2 e3d  | d3c dfed cBAG  | 
w:  tın  *  *  be *  ni    |  O  gün  ki  gör  |  düm  *  se *  ni    | 
B4 B2B2 BAG2  | ABc2 BAA4z2  | g2a2 b2a6  | \
w:  Yak tın_ ah  yak  |  tın  *  *  be *  ni    |  ARANAĞME  | 
g2a2 b2a6  | 
w:   | 
g2f2 e2d2 c2e2  | cdcB BAA4z2  | g2a2 b2a6  | \
w:   |   |  ARANAĞME  | 
g2a2 b2a6  | 
w:   | 
g2f2 e2d2 c2e2  | cdcB BAA4z2  | g4 a2a2 a4  | \
w:   |   |  Fik ri min_ in  | 
g2a2 b2a4z2  | 
w:  ce  *  gü lü    | 
g3a b2ba a3g  | aggf fef4z2  | g4 a2a2 a4  | \
w:  Kal *  bi min  *  şen   |  bül *  *  *  bü *  lü    |  Fik ri min_ in  | 
g2a2 b2a4z2  | 
w:  ce  *  gü lü    | 
g3a b2ba a3g  | aggf fef4z2  | e2f4g2 e3d  | \
w:  Kal *  bi min  *  şen   |  bül *  *  *  bü *  lü    |  O  gün  ki  gör  | 
d3c dfed cBAG  | 
w:  düm  *  se *  ni    | 
B4 B2B2 BAG2  | ABc2 BAA4z2  | e2f4g2 e3d  | \
w:  Yak tın_ ah  yak  |  tın  *  *  be *  ni    |  O  gün  ki  gör  | 
d3c dfed cBAG  | 
w:  düm  *  se *  ni    | 
B4 B2B2 BAG2  | ABc2 BAA4z2  | |


